briefcase-minus.svg

<svg fill="currentColor" viewBox="0 0 24 24"><path d="M22 17v2h-8v-2zM10 2h4a2 2 0 0 1 2 2v2h4a2 2 0 0 1 2 2v5.53A5.97 5.97 0 0 0 18 12a6 6 0 0 0-6 6c0 1.09.29 2.12.8 3H4a2 2 0 0 1-2-2V8c0-1.11.89-2 2-2h4V4c0-1.11.89-2 2-2m4 4V4h-4v2z"/></svg>

<svg  viewBox="0 0 24 24" fill="currentColor"><path  d="M22,17V19H14V17H22M10,2H14A2,2 0 0,1 16,4V6H20A2,2 0 0,1 22,8V13.53C20.94,12.58 19.54,12 18,12A6,6 0 0,0 12,18C12,19.09 12.29,20.12 12.8,21H4C2.89,21 2,20.1 2,19V8C2,6.89 2.89,6 4,6H8V4C8,2.89 8.89,2 10,2M14,6V4H10V6H14Z"/></svg>
